X:1307
T:The Nether Bow Has Vanished
P:The Marquis of Huntly's Snuff-mill/The Royal Gift
C:Niel Gow
R:Strathspey (8x48) ABABAB
B:RSCDS 13-7
Z:Anselm Lingnau <anselm@strathspey.org>
M:4/4
L:1/8
K:F
D|"F"C<F F>A "Bb"G>F D2|"F"C<F F>A "C"cd/e/ "F/A"f>c|\
  "Bb"d>c "F/A"f>A "Gm"B/A/G/F/ "Bb"D2|"F"C>F A>F "C7"G2 "F"FD|
  "F"C<F F>A "Bb"G>F D2|"F"C<F F>A "C"cd/e/ "F/A"f>c|\
  "Bb"d>c "F/A"f>A "Gm"B/A/G/F/ "Bb"D2|"F"C>F A>F "C7"G2 "F"F||
d|"F"c>f f>a "Bb"g>f d2|"F"c>f f>a "C7"g>a "F"f<c|\
  "Bb"d>f "F"c>A "Gm"B/A/G/F/ "Bb"D2|"F"C>F A<F "C7"G2 "F"Fd|
  "F"c>f f>a "Bb"g>f d2|"F"c>f f>a "C7"g>a "F"f<a|\
  "Bb"d>f "F"A>c "Gm"B/A/G/F/ "Bb"D f/g/|"F"a>F c>A "C7"G2 "F"F|]
